actions/22/category2parent.svg

<svg xmlns="http://www.w3.org/2000/svg" viewBox="0 0 22 22">
  <defs id="defs3051">
    <style type="text/css" id="current-color-scheme">.ColorScheme-Text {color:#fcfcfc;}.ColorScheme-Highlight {color:#3daee9;}</style>
  </defs>
 <path 
     style="fill:currentColor;fill-opacity:1;stroke:none" 
     d="m 3,3 v 13 c 0,3 3,3 3,3 h 6 V 18 H 6 C 6,18 4,18 4,16 V 7 h 14 v 5 h 1 V 3 H 17 V 6 H 15 V 3 H 7 V 6 H 5 V 3 Z m 10,10 v 1 3 c 0,0 0,2 2,2 2,0 0,0 2,0 2,0 2,-2 2,-2 v -3 -1 h -1 v 1 h -1 v -1 h -2 v 1 h -1 v -1 z m 1,2 h 4 v 2 c 0,0 0,1 -1,1 -1,0 -1,0 -2,0 -1,0 -1,-1 -1,-1 z"
     class="ColorScheme-Text"
     />
 <path 
     style="fill:currentColor;fill-opacity:1;stroke:none" 
     d="m 6,9 v 1 3 c 0,0 0,2 2,2 2,0 0,0 2,0 2,0 2,-2 2,-2 V 10 9 h -1 v 1 H 10 V 9 H 8 v 1 H 7 V 9 Z m 1,2 h 4 v 2 c 0,0 0,1 -1,1 -1,0 -1,0 -2,0 -1,0 -1,-1 -1,-1 z"
     class="ColorScheme-Highlight"
     />
</svg>

<svg xmlns="http://www.w3.org/2000/svg" viewBox="0 0 22 22">
  <defs id="defs3051">
    <style type="text/css" id="current-color-scheme">
      .ColorScheme-Text {
        color:#eff0f1;
      }
      .ColorScheme-Highlight {
        color:#3daee9;
      }
      </style>
  </defs>
 <path 
     style="fill:currentColor;fill-opacity:1;stroke:none" 
     d="M 3 3 L 3 19 L 12 19 L 12 18 L 4 18 L 4 7 L 18 7 L 18 12 L 19 12 L 19 3 L 17 3 L 17 6 L 15 6 L 15 3 L 7 3 L 7 6 L 5 6 L 5 3 L 3 3 z M 13 13 L 13 14 L 13 19 L 19 19 L 19 14 L 19 13 L 18 13 L 18 14 L 17 14 L 17 13 L 15 13 L 15 14 L 14 14 L 14 13 L 13 13 z M 14 15 L 18 15 L 18 18 L 14 18 L 14 15 z "
     class="ColorScheme-Text"
     />
 <path 
     style="fill:currentColor;fill-opacity:1;stroke:none" 
     d="M 6 9 L 6 10 L 6 15 L 12 15 L 12 10 L 12 9 L 11 9 L 11 10 L 10 10 L 10 9 L 8 9 L 8 10 L 7 10 L 7 9 L 6 9 z M 7 11 L 11 11 L 11 14 L 7 14 L 7 11 z "
     class="ColorScheme-Highlight"
     />
</svg>
